assets/Tumbler glass/Flat/tumbler_glass_flat.svg

<svg width="32" height="32" viewBox="0 0 32 32" fill="none" xmlns="http://www.w3.org/2000/svg">
<path d="M27.5047 30H4.50537C3.12241 30 2 28.8778 2 27.4952V4.62119C2 4.28054 2.2806 4 2.62133 4H29.3787C29.7194 4 30 4.28054 30 4.62119V27.4952C30 28.8778 28.8876 30 27.5047 30Z" fill="#AEDDFF"/>
<path d="M4.5 27C3.63801 27 3 26.3016 3 25.4435V18.9878C3 18.439 3.44102 18 3.99229 18H8L16 15.5L24 18H28.0077C28.559 18 29 18.439 29 18.9878V25.4435C29 26.3016 28.2984 27 27.4364 27H4.5Z" fill="#D3883E"/>
<path d="M17.0398 13C17.5721 13 18 13.4428 18 13.9935V18H8V13.9935C8 13.4428 8.42792 13 8.96021 13H17.0398Z" fill="#B4F6FC"/>
<path d="M24 18H16V13.9978C16 13.4447 16.4282 13 16.9608 13H23.0392C23.5718 13 24 13.4447 24 13.9978V18Z" fill="#00A6ED"/>
<path d="M26 7C26 6.44772 26.4477 6 27 6C27.5523 6 28 6.44772 28 7V25C28 25.5523 27.5523 26 27 26C26.4477 26 26 25.5523 26 25V7Z" fill="white"/>
</svg>

<svg xmlns="http://www.w3.org/2000/svg" width="32" height="32" fill="none"><path fill="#AEDDFF" d="M27.505 30h-23A2.506 2.506 0 0 1 2 27.495V4.621c0-.34.28-.621.621-.621H29.38c.34 0 .621.28.621.621v22.874A2.497 2.497 0 0 1 27.505 30Z"/><path fill="#D3883E" d="M4.5 27c-.862 0-1.5-.698-1.5-1.556v-6.456c0-.549.441-.988.992-.988H8l8-2.5 8 2.5h4.008c.551 0 .992.439.992.988v6.456c0 .858-.702 1.556-1.564 1.556H4.5Z"/><path fill="#B4F6FC" d="M17.04 13c.532 0 .96.443.96.993V18H8v-4.007c0-.55.428-.993.96-.993h8.08Z"/><path fill="#00A6ED" d="M24 18h-8v-4.002c0-.553.428-.998.96-.998h6.08c.532 0 .96.445.96.998V18Z"/><path fill="#fff" d="M26 7a1 1 0 1 1 2 0v18a1 1 0 1 1-2 0V7Z"/></svg>
